X:115
T:Planxty Joe Burke
R:hornpipe
C:Charlie Lennon
H:Originally in G
Z:id:hn-hornpipe-115
M:C|
L:1/8
K:D
DEFG Adcd | Gdcd Fdcd | DEFG Adcd | gfed ceag |
fefg afdA | Gdcd Fdcd | cdcd fedc |1 dAFA D4 :|2 dAFA D2 ag ||
|: fg (3agf bagf | ef (3gfe agfe | defd gfed | caec AGFE |
DEFG Adcd | Gdcd Fdcd | cdcd fedc |1 dAFA D2ag :|2 dAFA D4 || 

